X:7
T:Cross Hands THO3.007, The
O:England;London
M:C
L:1/8
Z:vmp. Peter Dunk 2011.from a transcription by Fynn Titford-Mock 2006-9
B:Thompson's Compleat Collection of 200 Favourite Country Dances Vol. III.1765-72
Q:1/4=140
K:D
a |fafd egec|defd A3 G|FGAB cdef|gabd- dcBA|fafd egec|
defd A3 G|FAdf (fa/b/)ag|fedc d3::A|AGFG FAdf|gfed- dcBA|
B2 cd efga|bged Td2c2|a3 b gfed|efge dcBA|BGFE (fa/b/)ag|fedc d3:|

